X:19
T:Soldier's Joy
C: Traditional
R:Hornpipe
M:4/4
L:1/8
K:D
dB|:"D"A2F2D2F2|A2d2d2dB|A2F2DEFD|"A"E3FE2eB|
"D"A2F2D2F2|A2d2d2de|f2d2"A"e2c2|1"D"d3ed2eB:|2"D"d3ed2Ad||
|:"D"f2g2a3f|"G"e2f2g4|"D"f2g2a2f2|"A"e2c2A2Ad|
"D"f2g2a3f|"G"e2f2g4|"D"f2d2"A"e2c2|1"D"d3ed2Ad:|2"D"d3ed2|]
